X:67
T:All in a garden green
Z:Jack Campin, http://www.campin.me.uk/
F:Jack Campin's Nine-Note Tunebook
% last edit 03-02-2013
S:Simpson, The British Broadside Ballad and Its Music
L:1/4
M:4/4
K:C
G2  GG   |E>D GE   |AG  FE   |D2  D2|
F>G A/B/c|C>D E/F/G|FE  D/C/D|C2  C2|
G>G Ac   |cB  c2   |EE  FE   |DC  D2|
E>D C/D/E|F>E D/E/F|G>F E/F/G|A>G FE|DC D/E/D|C2 C2|]

